X:1
T:Come, ye sinners, poor and wretched
T:Come, ye sinners, poor and wretched - Cairo (William Marsh)
C:William Marsh
Z:p18, A Set of New
Z:Psalm & Hymn Tunes,
Z:London: (1816)
%%score [ 1 2 3 4 ]
L:1/8
M:4/4
K:F
V:1 treble nm="Air" snm="S."
V:2 treble nm="[Alto]" snm="A."
V:3 treble-8 transpose=-12 nm="Tenor" snm="T."
V:4 bass nm="[Bass]" snm="B."
V:1
 F2 A2 c2 c2 | (de)(fd) d2 c2 | (dB)(BG) (cA)(AF) | (Ac)(BA) (A2 G2) | G2 c2 (c=B) B2 | %5
w: Let not con- science|make _ you _ lin- ger,|Nor _ of _ fit- * ness _|fond- * ly _ dream; _|All the fit- * ness|
w: Come, ye sin- ners,|poor _ and _ wret- ched,|Weak _ and _ woun- * ded, _|sick _ and _ sore; _|Je- sus rea- * dy|
w: Come, ye thirs- ty,|come, _ and _ wel- come;|God’s _ free _ boun- * ty _|glo- * ri- * fy: _|True be- lief, _ and|
 =B2 d2 (dc) c2 | (fd)(ec) (fd)(ec) | A2 =B2 c4 |!p! (c>d) (cB) (BA) A2 | (A>B) (AG) (GF) F2 | %10
w: he re- qui- * reth|Is _ to _ feel _ your _|need of him:|This _ he _ gives _ you,|this _ he _ gives _ you;|
w: stands to save _ you,|Full _ of _ pi- * ty _|join’d with pow’r:|He _ is _ a- * ble,|he _ is _ a- * ble,|
w: true re- pen- * tance,|Ev- * ’ry _ grace _ that _|brings us nigh:|With- * out _ mo- * ney,|with- * out _ mo- * ney,|
!f! (Ff)(ed) (d^c)(de) | f2 e2 d4 | (cf)(ed) (cd)(cB) | A2 G2 F4 |] %14
w: ’Tis _ his _ Spi- * rit’s _|ri- sing beam,|’tis _ his _ Spi- * rit's _|ri- sing beam.|
w: He _ is _ wil- * ling, _|doubt no more,|he _ is _ wil- * ling, _|doubt no more.|
w: Come _ to _ Je- * sus _|Christ, and buy,|come _ to _ Je- * sus _|Christ, and buy.|
V:2
 C2 C2 F2 F2 | F2 F2 F2 F2 | F2 E2 F2 C2 | (FA)(GF) (F2 E2) | E2 G2 G2 G2 | G2 G2 G2 G2 | %6
w: Let not con- science|make you lin- ger,|Nor of fit- ness|fond- * ly _ dream; _|All the fit- ness|he re- qui- reth|
w: Come, ye sin- ners,|poor and wret- ched,|Weak and woun- ded,|sick _ and _ sore; _|Je- sus rea- dy|stands to save you,|
w: Come, ye thirs- ty,|come, and wel- come;|God’s free boun- ty|glo- * ri- * fy: _|True be- lief, and|true re- pen- tance,|
 G2 G2 G2 G2 | F2 D2 E4 | z8 | z8 |"^["!f!"^]" (A,A)(GF) (FE)(AB) | A2 A2 A4 | F2 F2 F2 (FG) | %13
w: Is to feel your|need of him:|||’Tis _ his _ Spi- * rit’s _|ri- sing beam,|’tis his Spi- rit's _|
w: Full of pi- ty|join’d with pow’r:|||He _ is _ wil- * ling, _|doubt no more,|he is wil- ling, _|
w: Ev- ’ry grace that|brings us nigh:|||Come _ to _ Je- * sus _|Christ, and buy,|come to Je- sus _|
 F2 E2 F4 |] %14
w: ri- sing beam.|
w: doubt no more.|
w: Christ, and buy.|
V:3
 A2 F2 A2 A2 | (Bc)(dB) B2 A2 | (Bd)(GB) (Ac)(FA) | c2 d2 c4 | c2 e2 (ed) d2 | d2 f2 (fe) e2 | %6
w: Let not con- science|make _ you _ lin- ger,|Nor _ of _ fit- * ness _|fond- ly dream;|All the fit- * ness|he re- qui- * reth|
w: Come, ye sin- ners,|poor _ and _ wret- ched,|Weak _ and _ woun- * ded, _|sick and sore;|Je- sus rea- * dy|stands to save _ you,|
w: Come, ye thirs- ty,|come, _ and _ wel- come;|God’s _ free _ boun- * ty _|glo- ri- fy:|True be- lief, _ and|true re- pen- * tance,|
 d2 c2 d2 c2 | c2 G2 G4 | z8 |!p! (c>d) (cB) (BA) A2 |!f! c2 B2 A2 d2 | d2 ^c2 d4 | %12
w: Is to feel your|need of him:||This _ he _ gives _ you;|’Tis his Spi- rit’s|ri- sing beam,|
w: Full of pi- ty|join’d with pow’r:||He _ is _ a- * ble,|He is wil- ling,|doubt no more,|
w: Ev- ’ry grace that|brings us nigh:||With- * out _ mo- * ney,|Come to Je- sus|Christ, and buy,|
 A2 B2 (cB)(cd) | c2 B2 A4 |] %14
w: ’tis his Spi- * rit's _|ri- sing beam.|
w: he is wil- * ling, _|doubt no more.|
w: come to Je- * sus _|Christ, and buy.|
V:4
 F,2 F,2 F,2 F,2 | B,,2 B,,2"^64" F,2"^53" F,2 | B,,2"^7" C,2 F,2 F,2 | %3
w: Let not con- science|make you lin- ger,|Nor of fit- ness|
w: Come, ye sin- ners,|poor and wret- ched,|Weak and woun- ded,|
w: Come, ye thirs- ty,|come, and wel- come;|God’s free boun- ty|
 F,2"^86""^75" B,,2"^64""^53" C,4 | C,2 C,2"^64""^5§" G,2 G,2 |"^§" G,2"^7" G,2"^94""^83" C2 C,2 | %6
w: fond- ly dream;|All the fit- ness|he re- qui- reth|
w: sick and sore;|Je- sus rea- dy|stands to save you,|
w: glo- ri- fy:|True be- lief, and|true re- pen- tance,|
"^65" =B,,2 C,2"^65" B,,2 C,2 | F,2"^§" G,2 C,4 | z8 | %9
w: Is to feel your|need of him:||
w: Full of pi- ty|join’d with pow’r:||
w: Ev- ’ry grace that|brings us nigh:||
"^Notes:The original order of parts is Tenor - [Alto] - Air - [Bass]. The Alto and Tenor parts are printed in the source in the trebleclef, an octave above sounding pitch. Only the first verse of the text is given in the source: subsequent verses havebeen added editorially.""^4.Come, ye weary, heavy laden,Lost and ruin’d by the Fall!If you tarry till you’re better,You will never come at all:Not the righteous,Sinners Jesus came to call.5.View him prostrate in the Garden;On the ground your Maker lies!On the bloody tree behold him;Hear him cry, before he dies,‘It is finish’d:’Sinner, will not this suffice?" z8 | %10
w: |
w: |
w: |
"^["!f!"^]" F,2"^86""^75" G,2"^#" (A,"^-"G,)"^6"(F,"^65"G,) | %11
w: ’Tis his Spi- * rit’s _|
w: He is wil- * ling, _|
w: Come to Je- * sus _|
"^64" A,2"^5#" A,,2"^6.Lo, th’incarnate God, ascended,Pleads the merit of his blood:Venture on him, venture wholly,Let no other trust intrude;None but JesusCan do helpless sinners good.7.Saints and angels, join’d in concert,Sing the praises of the Lamb:While the blissful seats of heavenSweetly echo with his name.Hallelujah!Sinners, here, may sing the same." D,4 | %12
w: ri- sing beam,|
w: doubt no more,|
w: Christ, and buy,|
 F,2"^7" G,2"^6" (A,B,)"^6"(A,"^6"B,) |"^64" C2"^75" C,2 F,4 |] %14
w: ’tis his Spi- * rit's _|ri- sing beam.|
w: he is wil- * ling, _|doubt no more.|
w: come to Je- * sus _|Christ, and buy.|

